svg/fluentui-system-icons/ic_fluent_pivot_20_regular.svg

<svg width="20" height="20" viewBox="0 0 20 20" fill="none" xmlns="http://www.w3.org/2000/svg">
<path d="M5.5 4C4.67157 4 4 4.67157 4 5.5V14.5C4 15.3284 4.67157 16 5.5 16H10.0854C9.97153 16.3229 9.97153 16.6771 10.0854 17H5.5C4.11929 17 3 15.8807 3 14.5V5.5C3 4.11929 4.11929 3 5.5 3H14.5C15.8807 3 17 4.11929 17 5.5V10.0854C16.6771 9.97153 16.3229 9.97153 16 10.0854V5.5C16 4.67157 15.3284 4 14.5 4H5.5ZM6 5C5.44772 5 5 5.44772 5 6V7C5 7.55228 5.44772 8 6 8H7C7.55228 8 8 7.55228 8 7V6C8 5.44772 7.55228 5 7 5H6ZM10 5C9.44772 5 9 5.44772 9 6V7C9 7.55228 9.44772 8 10 8H14C14.5523 8 15 7.55229 15 7V6C15 5.44772 14.5523 5 14 5H10ZM6 9C5.44772 9 5 9.44772 5 10V14C5 14.5523 5.44772 15 6 15H7C7.55229 15 8 14.5523 8 14V10C8 9.44772 7.55228 9 7 9H6ZM16.8536 11.1464C16.6583 10.9512 16.3417 10.9512 16.1464 11.1464L15.1464 12.1464C14.9512 12.3417 14.9512 12.6583 15.1464 12.8536C15.3417 13.0488 15.6583 13.0488 15.8536 12.8536L16 12.7071V14.5C16 15.3284 15.3284 16 14.5 16H12.7071L12.8536 15.8536C13.0488 15.6583 13.0488 15.3417 12.8536 15.1464C12.6583 14.9512 12.3417 14.9512 12.1464 15.1464L11.1464 16.1464C10.9512 16.3417 10.9512 16.6583 11.1464 16.8536L12.1464 17.8536C12.3417 18.0488 12.6583 18.0488 12.8536 17.8536C13.0488 17.6583 13.0488 17.3417 12.8536 17.1464L12.7071 17H14.5C15.8807 17 17 15.8807 17 14.5V12.7071L17.1464 12.8536C17.3417 13.0488 17.6583 13.0488 17.8536 12.8536C18.0488 12.6583 18.0488 12.3417 17.8536 12.1464L16.8536 11.1464Z" fill="#212121"/>
</svg>

<svg xmlns="http://www.w3.org/2000/svg" width="20" height="20"><path d="M5.5 4A1.5 1.5 0 0 0 4 5.5v9A1.5 1.5 0 0 0 5.5 16h4.585a1.506 1.506 0 0 0 0 1H5.5A2.5 2.5 0 0 1 3 14.5v-9A2.5 2.5 0 0 1 5.5 3h9A2.5 2.5 0 0 1 17 5.5v4.585a1.506 1.506 0 0 0-1 0V5.5A1.5 1.5 0 0 0 14.5 4h-9ZM6 5a1 1 0 0 0-1 1v1a1 1 0 0 0 1 1h1a1 1 0 0 0 1-1V6a1 1 0 0 0-1-1H6Zm4 0a1 1 0 0 0-1 1v1a1 1 0 0 0 1 1h4a1 1 0 0 0 1-1V6a1 1 0 0 0-1-1h-4ZM6 9a1 1 0 0 0-1 1v4a1 1 0 0 0 1 1h1a1 1 0 0 0 1-1v-4a1 1 0 0 0-1-1H6Zm10.854 2.146a.5.5 0 0 0-.708 0l-1 1a.5.5 0 0 0 .708.708l.146-.147V14.5a1.5 1.5 0 0 1-1.5 1.5h-1.793l.147-.146a.5.5 0 0 0-.708-.708l-1 1a.5.5 0 0 0 0 .708l1 1a.5.5 0 0 0 .708-.708L12.707 17H14.5a2.5 2.5 0 0 0 2.5-2.5v-1.793l.146.147a.5.5 0 0 0 .708-.708l-1-1Z"/></svg>
